X: 467
T: Mai Cai
%%abc-version 2.0
%%abcx-abcm2ps-target-version 5.9.1 (29 Sep 2008)
%%abc-creator hum2abc beta
%%abcx-conversion-date 2013/10/02 07:52:30
%%abc-edited-by Helmut Schaffrath
%%humdrum-veritas 3149366500
%%humdrum-veritas-data 843495916
%%continueall 1
%%barnumbers 0
L: 1/8
M: 3/4
K: F
d d d f [I:setbarnb 1]| 
d Ac4 | 
[M:2/4]d d d f | 
[M:3/4]c AG4 | 
[M:2/4]G A G A | 
G Ac2 | 
F DC2 | 
c A G c | 
C D F G | 
F DC2 | 
d d f A | 
c4 |]  



